X: 3
T: Whelan's Old Sow
Z: JACKB
S: https://thesession.org/tunes/3002#setting25812
R: jig
M: 6/8
L: 1/8
K: Dmaj
|:F3 EDE|F2D DAG|F3 E3|DFA dAG|
F3 EDE|F2D DF/G/A|B2dA2d|F2B AFE:||
|:DFA d3|AdF AFE|DFA d2A|Bcd ecA|
AFA d2e|fdB BAF|B2d A2d|F2B AFE:||
